svgs/1F91F-1F3FB.svg

<svg xmlns="http://www.w3.org/2000/svg" xmlns:xlink="http://www.w3.org/1999/xlink" preserveAspectRatio="none" viewBox="0 0 72 72"><defs><path id="a" fill="#FADCBC" d="M47.95 1.5Q46.7.1 44.4.1q-3.9 0-4.25 5.35-.2 3-2.05 24.55-.15.3-.4.4-.55.15-1.15-1-.55-1-1.6-1.65-1.35-.8-2.95-.6-2.1.35-2.85 1.4-.5.65-.95 2.9-.35 1.45-.65.8-1.2-2-1.45-2.25-.55-.6-1.6-1-1.25-.5-2.4-.3-1.55.25-2.8 1.45-1.3 1.2-1.6 2.8-.25 1.4-.95.9-.3-.2-1.2-1.45-.55-.75-1.75-1.05-1.35-.4-2.6.05-3.8 1.3-3.95 4.9-.05 1.5-.45 9.7-.1 8.4 1.6 13.25 1.7 5.1 7.2 8.8 6.05 4 13.55 4 9.35 0 15.9-5.6 4.1-3.5 5.6-7.85 6.25-11.7 9.45-12.45 2.897-2.058 7.5-2.6.751-.194 1-.8.638-1.534-.75-3.5-1.413-1.364-3.75-2.15h-.05q-4.458-1.327-9 1.1-4.493 2.476-5.7-3.4-.15-6.235-.15-16.85 0-12.55-.05-13.15-.15-2.1-1.2-3.3z"/><path id="b" fill="#FADCBC" d="M11.55 8.65q-1 1.3-1 3.1 0 2.1 1.1 9.85.95 6.7 1.6 10.25.8 4.45 1.1 9.15.15 2.3.15 3.8l11.85-3.5.05-8.1-.6.8q-.7.7-1.35.05-.55-.6-1.25-2.2-.7-1.7-1.05-3.55-.5-2.6-2.1-9.2-1.65-6.8-2-8.6-.4-1.95-1.65-2.85-1.15-.8-2.55-.5-1.35.35-2.3 1.5z"/><path id="c" fill="#DBA689" d="M44.55 29.9q-.05.05-.05.1l-.35 13.2q-.397 2.56-2.7 3.4-2.305.892-4.55.05.191-7.45-.95-14.75 0-.25-.2-.4-.2 1.1-.75.3l-.2-.3h-.05q-.2.2-.2.45L34.9 40q.116 2.594-.4 5.2-.043.334-.15.65-.313.953-1.4 1.25l-1.15.2h-.2q-.55 0-.85-.1-1.2-.25-1.95-1.4-.8-1.05-1.45-2.8-.9-2.35-1.5-6.2-.25-1.25-.35-2.1l-.1-.8q-.05-.2-.2-.35-.25.65-.8.25l-.15-.15q-.1.15-.1.35l.05.85q0 .85.2 2.2.35 3.85 1.15 6.55.75 2.2 1.55 3.45.95 1.1 1.3 1.4.85.65 1.6.9.8.35 1.5.35l1.1-.05q.35-.1.75-.15l2.7-.8q3.463 1.127 6.3.2 3.67-1.15 4.2-4.65v-2.1V42l-.05-1.85q-.2-3.4-.25-4.15-.05-2.1-.25-4.1l-.2-1.85q0-.2-.05-.3-.05.05-.05.15-.15.3-.4.4-.35.1-.75-.4z"/></defs><use transform="translate(.15)" xlink:href="#a"/><use transform="translate(-7.5)" xlink:href="#b"/><use transform="translate(-7.5)" xlink:href="#c"/></svg>

<svg xmlns="http://www.w3.org/2000/svg" version="1.1" xmlns:xlink="http://www.w3.org/1999/xlink" preserveAspectRatio="none" x="0px" y="0px" width="72px" height="72px" viewBox="0 0 72 72">
<defs>
<g id="Layer0_0_FILL">
<path fill="#FADCBC" stroke="none" d="
M 47.95 1.5
Q 46.7 0.1 44.4 0.1 40.5 0.1 40.15 5.45 39.95 8.45 38.1 30 37.95 30.3 37.7 30.4 37.15 30.55 36.55 29.4 36 28.4 34.95 27.75 33.6 26.95 32 27.15 29.9 27.5 29.15 28.55 28.65 29.2 28.2 31.45 27.85 32.9 27.55 32.25 26.35 30.25 26.1 30 25.55 29.4 24.5 29 23.25 28.5 22.1 28.7 20.55 28.95 19.3 30.15 18 31.35 17.7 32.95 17.45 34.35 16.75 33.85 16.45 33.65 15.55 32.4 15 31.65 13.8 31.35 12.45 30.95 11.2 31.4 7.4 32.7 7.25 36.3 7.2 37.8 6.8 46 6.7 54.4 8.4 59.25 10.1 64.35 15.6 68.05 21.65 72.05 29.15 72.05 38.5 72.05 45.05 66.45 49.15 62.95 50.65 58.6 56.9 46.9 60.1 46.15 62.9966796875 44.091796875 67.6 43.55 68.351171875 43.3564453125 68.6 42.75 69.237890625 41.2162109375 67.85 39.25 66.43671875 37.8859375 64.1 37.1
L 64.05 37.1
Q 59.591796875 35.77265625 55.05 38.2 50.556640625 40.6755859375 49.35 34.8 49.2 28.5650390625 49.2 17.95 49.2 5.4 49.15 4.8 49 2.7 47.95 1.5 Z"/>
</g>

<g id="Layer0_1_FILL">
<path fill="#FADCBC" stroke="none" d="
M 11.55 8.65
Q 10.55 9.95 10.55 11.75 10.55 13.85 11.65 21.6 12.6 28.3 13.25 31.85 14.05 36.3 14.35 41 14.5 43.3 14.5 44.8
L 26.35 41.3 26.4 33.2 25.8 34
Q 25.1 34.7 24.45 34.05 23.9 33.45 23.2 31.85 22.5 30.15 22.15 28.3 21.65 25.7 20.05 19.1 18.4 12.3 18.05 10.5 17.65 8.55 16.4 7.65 15.25 6.85 13.85 7.15 12.5 7.5 11.55 8.65 Z"/>
</g>

<g id="Layer0_2_FILL">
<path fill="#DBA689" stroke="none" d="
M 44.55 29.9
Q 44.5 29.95 44.5 30
L 44.15 43.2
Q 43.7533203125 45.760546875 41.45 46.6 39.1451171875 47.4921875 36.9 46.65 37.09140625 39.2 35.95 31.9 35.95 31.65 35.75 31.5 35.55 32.6 35 31.8 34.9 31.65 34.8 31.5
L 34.75 31.5
Q 34.55 31.7 34.55 31.95
L 34.9 40
Q 35.01640625 42.59375 34.5 45.2 34.457421875 45.533984375 34.35 45.85 34.0375 46.802734375 32.95 47.1
L 31.8 47.3 31.6 47.3
Q 31.05 47.3 30.75 47.2 29.55 46.95 28.8 45.8 28 44.75 27.35 43 26.45 40.65 25.85 36.8 25.6 35.55 25.5 34.7
L 25.4 33.9
Q 25.35 33.7 25.2 33.55 24.95 34.2 24.4 33.8 24.35 33.75 24.25 33.65 24.15 33.8 24.15 34
L 24.2 34.85
Q 24.2 35.7 24.4 37.05 24.75 40.9 25.55 43.6 26.3 45.8 27.1 47.05 28.05 48.15 28.4 48.45 29.25 49.1 30 49.35 30.8 49.7 31.5 49.7
L 32.6 49.65
Q 32.95 49.55 33.35 49.5
L 36.05 48.7
Q 39.5130859375 49.826953125 42.35 48.9 46.0197265625 47.749609375 46.55 44.25
L 46.55 42.15
Q 46.55 42.05 46.55 42
L 46.5 40.15
Q 46.3 36.75 46.25 36 46.2 33.9 46 31.9
L 45.8 30.05
Q 45.8 29.85 45.75 29.75 45.7 29.8 45.7 29.9 45.55 30.2 45.3 30.3 44.95 30.4 44.55 29.9 Z"/>
</g>
</defs>

<g id="Layer_1">
<g transform="matrix( 1, 0, 0, 1, 0.15,0) ">
<use xlink:href="#Layer0_0_FILL"/>
</g>

<g transform="matrix( 1, 0, 0, 1, -7.5,0) ">
<use xlink:href="#Layer0_1_FILL"/>
</g>

<g transform="matrix( 1, 0, 0, 1, -7.5,0) ">
<use xlink:href="#Layer0_2_FILL"/>
</g>
</g>
</svg>
